X:226
T:Lord Derby's March
O:No 226 Wm Clarke of Feltwell
M:C
L:1/8
K:D
a>f|d2 d>d d2f2|a4 f2 d2| e>fg>a b>Bg>e| (d3e/d/c2) a>f|/! d2 d>d d2 f2| a4 e2a2| ^g>fe>d c2e2|A2 A>A A2:||/!
:A>A| g4 e2a2| f2 d>d d2A2| g4 e2 a>f| (g3a/g/ f2) aa|/! d'4 a3f|b4 e3g| f>ga>g f>ge>f| d2 d>d d2:|]

